X:362
T:Surgeon's Call
S:Bruce & Emmett's Drummers and Fifers Guide (1862), p. 36
M:2/4
L:1/16
K:G
Bc|d2ed c2B2|AGAB GABc|d2ed c2B2|AGAB G2::Bc|d2ef g2fg|afge dcBA|d2ef g2fg|afge d2:|
Q:Allegro
%%MIDI program 72
%%MIDI transpose 8
%%MIDI ratio 3 1
Hz2|B>GA>F G2g2|f>de>^c d3=c|B>GA>F G2g2|f>de>^c d2 (3(def)|
g>dB>G e3e|d>e (3(dcB) A3c|B>GA>F G2g2|f>ga>f g2||
